usr/share/icons/biglinux-icons-material/scalable/apps/cheese.svg

<svg width="24" height="24" viewBox="0 0 24 24" fill="none" xmlns="http://www.w3.org/2000/svg">
<path fill-rule="evenodd" clip-rule="evenodd" d="M1 11.5731C1.00007 11.7121 1.00168 11.8512 1.00483 11.9906C0.974199 13.5124 1.12311 15.0161 1.45158 16.5017C2.22559 19.8018 4.26839 21.8208 7.57997 22.5585C9.37913 22.9287 11.1966 23.0661 13.0325 22.9706C14.6647 22.943 16.2531 22.6682 17.7978 22.1463C19.704 21.447 21.0824 20.1761 21.933 18.3336C22.3916 17.271 22.6895 16.1642 22.8265 15.0133C23.0096 13.3758 23.0478 11.7347 22.941 10.09C22.8639 8.78021 22.6119 7.50549 22.185 6.26586C21.4386 4.2069 20.0525 2.76044 18.0269 1.9265C16.8085 1.46308 15.5484 1.18066 14.2467 1.07924C12.8111 0.977551 11.3755 0.973736 9.93969 1.06779C9.83043 1.0996 9.71588 1.11486 9.59604 1.11359C8.8536 1.17326 8.12048 1.29157 7.39669 1.46852C4.2905 2.20701 2.33171 4.11908 1.52031 7.20471C1.17411 8.63605 1.00068 10.0864 1 11.5557C0.999999 11.5615 0.999999 11.5673 1 11.5731Z" fill="url(#paint0_linear_3_286)"/>
<path fill-rule="evenodd" clip-rule="evenodd" d="M22.965 13.3029C22.9364 13.8735 22.8902 14.4436 22.8265 15.0133C22.6895 16.1642 22.3917 17.271 21.933 18.3336C21.0824 20.1761 19.704 21.447 17.7978 22.1463C16.2531 22.6682 14.6647 22.943 13.0325 22.9706C12.2861 23.0095 11.5428 23.0098 10.8025 22.9716C10.2906 21.9278 10.0034 20.756 10.0034 19.5178C10.0034 15.144 13.5859 11.5983 18.0051 11.5983C19.8785 11.5983 21.6015 12.2355 22.965 13.3029Z" fill="#F9F9F9"/>
<path opacity="0.35" d="M12.0033 4.66667C10.1464 4.66667 8.3655 5.39677 7.05244 6.69635C5.73938 7.99594 5.00171 9.75855 5.00171 11.5964C5.00171 13.4343 5.73938 15.197 7.05244 16.4965C8.3655 17.7961 10.1464 18.5262 12.0033 18.5262C13.8603 18.5262 15.6412 17.7961 16.9543 16.4965C18.2673 15.197 19.005 13.4343 19.005 11.5964C19.005 9.75855 18.2673 7.99594 16.9543 6.69635C15.6412 5.39677 13.8603 4.66667 12.0033 4.66667ZM9.00157 8.63108C9.13805 8.62277 9.27482 8.64221 9.40343 8.68819C9.53205 8.73416 9.64979 8.80572 9.74941 8.89843C9.84902 8.99115 9.92841 9.10307 9.98268 9.2273C10.0369 9.35153 10.0649 9.48544 10.0649 9.62078C10.0649 9.75613 10.0369 9.89004 9.98268 10.0143C9.92841 10.1385 9.84902 10.2504 9.74941 10.3431C9.64979 10.4359 9.53205 10.5074 9.40343 10.5534C9.27482 10.5994 9.13805 10.6188 9.00157 10.6105C8.74699 10.595 8.50797 10.484 8.33324 10.3001C8.15851 10.1162 8.06123 9.87323 8.06123 9.62078C8.06123 9.36834 8.15851 9.12541 8.33324 8.9415C8.50797 8.7576 8.74699 8.64658 9.00157 8.63108ZM15.0032 8.63108C15.1397 8.62277 15.2765 8.64221 15.4051 8.68819C15.5337 8.73416 15.6515 8.80572 15.7511 8.89843C15.8507 8.99115 15.9301 9.10307 15.9844 9.2273C16.0386 9.35153 16.0666 9.48544 16.0666 9.62078C16.0666 9.75613 16.0386 9.89004 15.9844 10.0143C15.9301 10.1385 15.8507 10.2504 15.7511 10.3431C15.6515 10.4359 15.5337 10.5074 15.4051 10.5534C15.2765 10.5994 15.1397 10.6188 15.0032 10.6105C14.7487 10.595 14.5096 10.484 14.3349 10.3001C14.1602 10.1162 14.0629 9.87323 14.0629 9.62078C14.0629 9.36834 14.1602 9.12541 14.3349 8.9415C14.5096 8.7576 14.7487 8.64658 15.0032 8.63108ZM9.17547 13.4093C9.92523 14.1514 10.9421 14.5682 12.0024 14.5682C13.0627 14.5682 14.0796 14.1514 14.8293 13.4093L15.5363 14.109C15.0723 14.5689 14.5213 14.9338 13.9148 15.1829C13.3083 15.4321 12.6581 15.5605 12.0015 15.5609C10.6783 15.5609 9.40609 15.037 8.4685 14.109L9.17547 13.4093Z" fill="white"/>
<path opacity="0.75" fill-rule="evenodd" clip-rule="evenodd" d="M22.1534 17.7868C22.0846 17.9703 22.0111 18.1526 21.933 18.3336C21.0824 20.1761 19.704 21.447 17.7978 22.1463C16.8745 22.4582 15.9357 22.6819 14.9812 22.8173C14.074 22.0023 13.5043 20.8259 13.5043 19.5178C13.5043 17.0576 15.5193 15.0632 18.0051 15.0632C19.8705 15.0632 21.4708 16.1864 22.1534 17.7868Z" fill="black"/>
<path fill-rule="evenodd" clip-rule="evenodd" d="M21.4882 19.1676C20.6316 20.565 19.4015 21.5579 17.7978 22.1463C17.3144 22.3096 16.8267 22.4487 16.3348 22.5637C15.2443 21.9767 14.5042 20.8328 14.5042 19.5178C14.5042 17.6042 16.0716 16.0529 18.005 16.0529C19.819 16.0529 21.3108 17.4184 21.4882 19.1676Z" fill="#E91E63"/>
<path opacity="0.2" d="M19.7725 17.7666C19.3036 17.303 18.6679 17.0426 18.0051 17.0426C17.3423 17.0426 16.7066 17.303 16.2377 17.7666L18.0051 19.5159L19.7725 17.7666Z" fill="white"/>
<path opacity="0.4" fill-rule="evenodd" clip-rule="evenodd" d="M20.1706 20.7507C20.0091 20.8944 19.8405 21.0304 19.665 21.1588L18.0051 19.5159L19.7725 17.7666C20.2409 18.2307 20.504 18.8599 20.504 19.5159C20.504 19.9531 20.3872 20.3783 20.1706 20.7507ZM18.0051 19.5159L16.2376 21.2652C15.7692 20.8011 15.5061 20.1719 15.5061 19.5159C15.5061 18.8599 15.7692 18.2307 16.2376 17.7666L18.0051 19.5159Z" fill="white"/>
<path opacity="0.6" fill-rule="evenodd" clip-rule="evenodd" d="M19.6639 21.1596C19.2233 21.4818 18.7385 21.7562 18.2096 21.9828C18.1418 21.9883 18.0736 21.9911 18.0051 21.9911C17.3423 21.9911 16.7066 21.7307 16.2377 21.2671L18.0051 19.5178L19.6639 21.1596Z" fill="white"/>
<defs>
<linearGradient id="paint0_linear_3_286" x1="12" y1="1" x2="12" y2="12" gradientUnits="userSpaceOnUse">
<stop stop-color="#EEA5FF"/>
<stop offset="1" stop-color="#A159B2"/>
</linearGradient>
</defs>
</svg>

<svg xmlns="http://www.w3.org/2000/svg" width="24" height="24" fill="none"><path fill="url(#a)" fill-rule="evenodd" d="M1 11.573c0 .14.002.278.005.418-.03 1.521.118 3.025.447 4.51.774 3.3 2.816 5.32 6.128 6.057 1.8.37 3.617.508 5.453.413a15.624 15.624 0 0 0 4.765-.825c1.906-.699 3.284-1.97 4.135-3.812a11.88 11.88 0 0 0 .893-3.32c.184-1.638.222-3.28.115-4.924a14.264 14.264 0 0 0-.756-3.824c-.746-2.06-2.133-3.506-4.158-4.34a13.537 13.537 0 0 0-3.78-.847 31.627 31.627 0 0 0-4.307-.011c-.11.032-.224.047-.344.046-.742.06-1.476.178-2.2.355-3.106.738-5.064 2.65-5.876 5.736A18.48 18.48 0 0 0 1 11.573Z" clip-rule="evenodd"/><path fill="#F9F9F9" fill-rule="evenodd" d="M22.965 13.303c-.029.57-.075 1.14-.139 1.71a11.876 11.876 0 0 1-.893 3.32c-.85 1.843-2.229 3.114-4.135 3.813a15.624 15.624 0 0 1-4.765.825c-.747.038-1.49.039-2.23 0a7.821 7.821 0 0 1-.8-3.453c0-4.374 3.583-7.92 8.002-7.92a8.02 8.02 0 0 1 4.96 1.705Z" clip-rule="evenodd"/><path fill="#fff" d="M12.003 4.667c-1.857 0-3.637.73-4.95 2.03a6.894 6.894 0 0 0-2.051 4.9c0 1.837.737 3.6 2.05 4.9a7.039 7.039 0 0 0 4.951 2.03c1.857 0 3.638-.73 4.951-2.03a6.894 6.894 0 0 0 2.051-4.9c0-1.838-.738-3.601-2.05-4.9a7.039 7.039 0 0 0-4.952-2.03ZM9.002 8.63a1.011 1.011 0 0 1 .747.267.992.992 0 0 1 .316.723.984.984 0 0 1-.316.722 1.003 1.003 0 0 1-.747.268 1.006 1.006 0 0 1-.669-.31.986.986 0 0 1 0-1.36c.175-.183.414-.294.669-.31Zm6.001 0a1.012 1.012 0 0 1 .748.267.993.993 0 0 1 .316.723.984.984 0 0 1-.316.722 1.003 1.003 0 0 1-.748.268 1.006 1.006 0 0 1-.668-.31.986.986 0 0 1 0-1.36c.175-.183.414-.294.668-.31ZM9.175 13.41a4.019 4.019 0 0 0 2.827 1.16c1.06 0 2.078-.418 2.827-1.16l.707.7a5.043 5.043 0 0 1-3.535 1.452 5.028 5.028 0 0 1-3.532-1.452l.706-.7Z" opacity=".35"/><path fill="#000" fill-rule="evenodd" d="M22.153 17.787a12.12 12.12 0 0 1-.22.547c-.85 1.842-2.229 3.113-4.135 3.812-.923.312-1.862.536-2.817.671a4.423 4.423 0 0 1-1.477-3.3c0-2.46 2.015-4.454 4.501-4.454a4.503 4.503 0 0 1 4.148 2.724Z" clip-rule="evenodd" opacity=".75"/><path fill="#E91E63" fill-rule="evenodd" d="M21.488 19.168c-.856 1.397-2.087 2.39-3.69 2.978-.484.164-.971.303-1.463.418a3.46 3.46 0 0 1-1.83-3.046c0-1.914 1.567-3.465 3.5-3.465 1.814 0 3.306 1.365 3.483 3.115Z" clip-rule="evenodd"/><path fill="#fff" d="M19.773 17.767a2.514 2.514 0 0 0-1.768-.724c-.663 0-1.298.26-1.767.724l1.767 1.749 1.768-1.75Z" opacity=".2"/><path fill="#fff" fill-rule="evenodd" d="M20.17 20.75c-.16.144-.33.28-.505.409l-1.66-1.643 1.768-1.75a2.462 2.462 0 0 1 .398 2.985Zm-2.165-1.234-1.767 1.75a2.462 2.462 0 0 1-.732-1.75c0-.656.263-1.285.732-1.75l1.767 1.75Z" clip-rule="evenodd" opacity=".4"/><path fill="#fff" fill-rule="evenodd" d="M19.664 21.16a7.37 7.37 0 0 1-1.454.823 2.514 2.514 0 0 1-1.972-.716l1.767-1.75 1.659 1.643Z" clip-rule="evenodd" opacity=".6"/><defs><linearGradient id="a" x1="12" x2="12" y1="1" y2="12" gradientUnits="userSpaceOnUse"><stop stop-color="#EEA5FF"/><stop offset="1" stop-color="#A159B2"/></linearGradient></defs></svg>
